X:1
T:After battle of Aughrim
M:2/4
L:1/16
R:Polka
K:ADor
"Am"E2A2 ABcd|"Am"e2d2 c2A2|"Am"~B2G2 {A}GFGA|"Em"BGAG E2D2|"Am"E2A2 A2 (3Bcd|"C"e2ed e2ag|"Em"e2d2 BedB|1"Am"A4 A2AG:|2A6 ze|
|:"Am"a2ag e2 (3efg|"Am"abag e2 (3efg|"D"a2{ba}f2 "A7"g2{ag}e2|"D"dedB "G"G4|"Am"abag e2 (3efg|abag e2d2|"Em"B2e2 "G"d2B2|1"Am"A6e2:|2"Am"A8|]

